src/pages/elements/images/punctuation-quotes-dont.svg

<svg xmlns="http://www.w3.org/2000/svg" viewBox="0 0 288 288"><g fill="none" fill-rule="evenodd"><path fill="#FFF" d="M0 0h288v288H0z"/><path d="M80.048 137.88h-5.184v-20.16h5.184v20.16zm-12.744 0H62.12v-20.16h5.184v20.16zm159.336 0h-5.184v-20.16h5.184v20.16zm-12.744 0h-5.184v-20.16h5.184v20.16z" fill="#D12765"/><path fill="#3D3D3D" d="M127.064 171h-6.336l-5.04-14.832H95.384L90.344 171h-6.12l17.568-50.256h7.704z"/><path fill="#FFF" d="M114.176 150.84l-8.496-24.48h-.36l-8.496 24.48z"/><path d="M148.664 171.864c-10.44 0-16.56-7.56-16.56-19.44 0-11.88 6.12-19.44 16.56-19.44 7.344 0 11.736 3.6 13.896 8.712l-4.824 2.448c-1.368-3.816-4.536-6.048-9.072-6.048-6.84 0-10.368 4.68-10.368 11.16v6.336c0 6.48 3.528 11.16 10.368 11.16 4.68 0 8.064-2.232 10.08-6.48l4.176 2.808c-2.376 5.328-7.2 8.784-14.256 8.784zm35.928 0c-10.08 0-16.704-7.632-16.704-19.44 0-11.808 6.624-19.44 16.704-19.44 9.936 0 16.056 7.632 16.056 18.144v2.736h-26.712v1.728c0 6.408 4.104 11.232 11.016 11.232 4.68 0 8.28-2.304 10.224-6.408l4.104 2.952c-2.376 5.04-7.704 8.496-14.688 8.496z" fill="#3D3D3D"/><path d="M184.592 137.808c-6.264 0-10.656 4.752-10.656 11.232v.504h20.52v-.792c0-6.552-3.96-10.944-9.864-10.944z" fill="#FFF"/></g></svg>

<?xml version="1.0" encoding="UTF-8"?>
<svg width="288px" height="288px" viewBox="0 0 288 288" version="1.1" xmlns="http://www.w3.org/2000/svg" xmlns:xlink="http://www.w3.org/1999/xlink">
    <!-- Generator: Sketch 51.2 (57519) - http://www.bohemiancoding.com/sketch -->
    <title>I'm Wrong Copy</title>
    <desc>Created with Sketch.</desc>
    <defs></defs>
    <g id="Page-1" stroke="none" stroke-width="1" fill="none" fill-rule="evenodd">
        <g id="Type-Basics-Copy" transform="translate(-673.000000, -4980.000000)">
            <g id="I'm-Wrong-Copy" transform="translate(673.000000, 4980.000000)">
                <rect id="Rectangle-16-Copy-169" fill="#FFFFFF" x="0" y="0" width="288" height="288"></rect>
                <path d="M80.048,137.88 L74.864,137.88 L74.864,117.72 L80.048,117.72 L80.048,137.88 Z M67.304,137.88 L62.12,137.88 L62.12,117.72 L67.304,117.72 L67.304,137.88 Z M226.64,137.88 L221.456,137.88 L221.456,117.72 L226.64,117.72 L226.64,137.88 Z M213.896,137.88 L208.712,137.88 L208.712,117.72 L213.896,117.72 L213.896,137.88 Z" id="&quot;Ace&quot;" fill="#D12765"></path>
                <polygon id="Path" fill="#3D3D3D" points="127.064 171 120.728 171 115.688 156.168 95.384 156.168 90.344 171 84.224 171 101.792 120.744 109.496 120.744"></polygon>
                <polygon id="Path" fill="#FFFFFF" points="114.176 150.84 105.68 126.36 105.32 126.36 96.824 150.84"></polygon>
                <path d="M148.664,171.864 C138.224,171.864 132.104,164.304 132.104,152.424 C132.104,140.544 138.224,132.984 148.664,132.984 C156.008,132.984 160.4,136.584 162.56,141.696 L157.736,144.144 C156.368,140.328 153.2,138.096 148.664,138.096 C141.824,138.096 138.296,142.776 138.296,149.256 L138.296,155.592 C138.296,162.072 141.824,166.752 148.664,166.752 C153.344,166.752 156.728,164.52 158.744,160.272 L162.92,163.08 C160.544,168.408 155.72,171.864 148.664,171.864 Z" id="Path" fill="#3D3D3D"></path>
                <path d="M184.592,171.864 C174.512,171.864 167.888,164.232 167.888,152.424 C167.888,140.616 174.512,132.984 184.592,132.984 C194.528,132.984 200.648,140.616 200.648,151.128 L200.648,153.864 L173.936,153.864 L173.936,155.592 C173.936,162 178.04,166.824 184.952,166.824 C189.632,166.824 193.232,164.52 195.176,160.416 L199.28,163.368 C196.904,168.408 191.576,171.864 184.592,171.864 Z" id="Path" fill="#3D3D3D"></path>
                <path d="M184.592,137.808 C178.328,137.808 173.936,142.56 173.936,149.04 L173.936,149.544 L194.456,149.544 L194.456,148.752 C194.456,142.2 190.496,137.808 184.592,137.808 Z" id="Path" fill="#FFFFFF"></path>
            </g>
        </g>
    </g>
</svg>
